X: 101
T: No_38_Terrible_in_Its_Power_to_Destroy.krn
N: Derived from No_38_Terrible_in_Its_Power_to_Destroy.krn
%%abc-version 2.0
%%abcx-abcm2ps-target-version 5.9.1 (29 Sep 2008)
%%abc-creator hum2abc beta
%%abcx-conversion-date 2019/03/15 08:37:56
%%humdrum-veritas 199984526
%%humdrum-veritas-data 1365551774
%%linebreak <none>
%%barnumbers 0
L: 1/8
M: 2/4
K: Bb clef=bass
[K:clef=bass][M:2/4]B,/B,3/ B,/B,3/ | 
(C/B,3/) (B,A,/)G,/ | 
A,A, G,D, ]|:  
A,/A,3/ A,A, | 
A,3/G,/ G,G,/E,/ | 
G,G, D, z | 
A,A,/G,/ G,G,/F,/ | 
G,G, D, z | 
A,A,/G,/ G,G,/F,/ | 
G,G, D, z :|]  



